build/assets/icons/logo.svg

<svg width="120" height="42" viewBox="0 0 120 42" fill="none" xmlns="http://www.w3.org/2000/svg">
<path d="M45.8523 34.2222V8.55661H56.6138C58.5643 8.55661 60.2477 8.90333 61.6639 9.59677C63.0886 10.2819 64.1868 11.2677 64.9585 12.5543C65.7302 13.8326 66.116 15.349 66.116 17.1035C66.116 18.883 65.7217 20.3952 64.933 21.6401C64.1444 22.8766 63.025 23.8206 61.5748 24.4723C60.1247 25.1156 58.4074 25.4373 56.423 25.4373H49.6176V20.5498H55.2527C56.2025 20.5498 56.9954 20.4286 57.6315 20.1863C58.276 19.9357 58.7636 19.5597 59.0943 19.0585C59.4251 18.5488 59.5904 17.8972 59.5904 17.1035C59.5904 16.3098 59.4251 15.6539 59.0943 15.1359C58.7636 14.6096 58.276 14.2169 57.6315 13.9579C56.987 13.6906 56.1941 13.5569 55.2527 13.5569H52.1489V34.2222H45.8523ZM60.519 22.4922L67.0065 34.2222H60.1374L53.7772 22.4922H60.519Z" fill="#1929B9"/>
<path d="M69.5696 34.2222V14.973H75.79V34.2222H69.5696ZM72.6862 12.7298C71.8127 12.7298 71.0622 12.4457 70.4346 11.8776C69.8071 11.3011 69.4933 10.6077 69.4933 9.79728C69.4933 8.99523 69.8071 8.31015 70.4346 7.74203C71.0622 7.16556 71.8127 6.87732 72.6862 6.87732C73.5681 6.87732 74.3186 7.16556 74.9377 7.74203C75.5652 8.31015 75.879 8.99523 75.879 9.79728C75.879 10.6077 75.5652 11.3011 74.9377 11.8776C74.3186 12.4457 73.5681 12.7298 72.6862 12.7298Z" fill="#1929B9"/>
<path d="M79.8001 34.2222V30.7258L88.8571 19.8605V19.7352H80.1181V14.973H96.2731V18.8078L87.8776 29.3347V29.4601H96.5784V34.2222H79.8001Z" fill="#1929B9"/>
<path d="M109.172 34.5857C107.128 34.5857 105.364 34.1888 103.88 33.3951C102.404 32.5931 101.268 31.4526 100.471 29.9739C99.6822 28.4867 99.2879 26.7197 99.2879 24.6728C99.2879 22.6844 99.6865 20.9466 100.484 19.4595C101.281 17.964 102.404 16.8027 103.855 15.9756C105.305 15.1401 107.013 14.7224 108.981 14.7224C110.372 14.7224 111.644 14.9354 112.797 15.3615C113.95 15.7876 114.947 16.4184 115.786 17.2538C116.626 18.0893 117.279 19.1211 117.745 20.3493C118.212 21.569 118.445 22.9685 118.445 24.5475V26.0764H101.463V22.5173H112.657C112.649 21.8656 112.492 21.285 112.186 20.7754C111.881 20.2657 111.461 19.8689 110.927 19.5848C110.401 19.2924 109.795 19.1462 109.108 19.1462C108.413 19.1462 107.789 19.3007 107.238 19.6099C106.687 19.9106 106.25 20.3242 105.928 20.8505C105.606 21.3685 105.436 21.9575 105.419 22.6176V26.2393C105.419 27.0247 105.576 27.7139 105.89 28.3071C106.204 28.8919 106.649 29.3473 107.225 29.6731C107.802 29.9989 108.489 30.1618 109.286 30.1618C109.837 30.1618 110.338 30.0867 110.787 29.9363C111.237 29.7859 111.623 29.5645 111.945 29.2721C112.267 28.9797 112.509 28.6204 112.67 28.1943L118.381 28.3572C118.144 29.6188 117.622 30.7174 116.817 31.6532C116.02 32.5805 114.972 33.3032 113.675 33.8212C112.377 34.3308 110.876 34.5857 109.172 34.5857Z" fill="#1929B9"/>
<path d="M8.21762 7.84463C8.6541 6.30934 10.0564 5.25012 11.6525 5.25012H34.9364C36.9087 5.25012 38.5075 6.84893 38.5075 8.82116V33.1791C38.5075 35.1513 36.9087 36.7501 34.9364 36.7501H4.72776C2.3572 36.7501 0.64459 34.4828 1.29284 32.2026L8.21762 7.84463Z" fill="#1929B9"/>
<path d="M24.3647 10.2051C24.21 11.3367 23.6799 12.7513 22.7742 14.4487C21.8685 16.1244 20.7862 17.811 19.5271 19.5085C18.29 21.1842 17.1303 22.5661 16.0479 23.6542H22.6085V18.9862C23.2933 18.0286 23.9891 16.897 24.696 15.5912C25.4029 14.2855 25.8668 13.2083 26.0877 12.3595H28.9041V23.6542H32.085V28.4528H28.9041V33.0555H22.6085V28.4528H11.5085V23.5889C12.7014 21.8914 13.8832 19.8349 15.0539 17.4193C16.2247 15.0037 17.1635 12.5989 17.8703 10.2051H24.3647Z" fill="white"/>
</svg>

<svg width="120" height="42" fill="none" xmlns="http://www.w3.org/2000/svg"><path d="M45.852 34.222V8.557h10.762c1.95 0 3.634.346 5.05 1.04 1.425.685 2.523 1.67 3.294 2.957.772 1.279 1.158 2.795 1.158 4.55 0 1.779-.394 3.291-1.183 4.536-.789 1.237-1.908 2.18-3.358 2.832-1.45.644-3.168.965-5.152.965h-6.805V20.55h5.635c.95 0 1.742-.121 2.379-.364.644-.25 1.132-.626 1.462-1.128.331-.51.496-1.16.496-1.954s-.165-1.45-.496-1.968c-.33-.526-.818-.92-1.462-1.178-.645-.267-1.438-.401-2.38-.401H52.15v20.665h-6.297zm14.667-11.73l6.488 11.73h-6.87l-6.36-11.73h6.742zm9.051 11.73V14.973h6.22v19.25h-6.22zm3.116-21.492c-.873 0-1.624-.284-2.251-.852-.628-.577-.942-1.27-.942-2.08 0-.803.314-1.488.942-2.056.627-.576 1.378-.865 2.251-.865.882 0 1.633.289 2.252.865.627.568.941 1.253.941 2.055 0 .81-.314 1.504-.941 2.08-.62.569-1.37.853-2.252.853zM79.8 34.222v-3.496l9.057-10.866v-.125h-8.739v-4.762h16.155v3.835l-8.395 10.527v.125h8.7v4.762H79.8zm29.372.364c-2.044 0-3.808-.397-5.292-1.19a8.29 8.29 0 01-3.409-3.422c-.789-1.487-1.183-3.254-1.183-5.301 0-1.989.398-3.726 1.196-5.213a8.555 8.555 0 013.371-3.484c1.45-.836 3.158-1.254 5.126-1.254 1.391 0 2.663.213 3.816.64a8.215 8.215 0 012.989 1.892c.84.835 1.493 1.867 1.959 3.095.467 1.22.7 2.62.7 4.198v1.53h-16.982v-3.56h11.194c-.008-.651-.165-1.232-.471-1.742a3.176 3.176 0 00-1.259-1.19c-.526-.293-1.132-.439-1.819-.439-.695 0-1.319.155-1.87.464-.551.3-.988.714-1.31 1.24a3.452 3.452 0 00-.509 1.768v3.621c0 .786.157 1.475.471 2.068a3.37 3.37 0 001.335 1.366c.577.326 1.264.489 2.061.489a4.71 4.71 0 001.501-.226c.45-.15.836-.372 1.158-.664a2.74 2.74 0 00.725-1.078l5.711.163c-.237 1.262-.759 2.36-1.564 3.296-.797.928-1.845 1.65-3.142 2.168-1.298.51-2.799.765-4.503.765zM8.218 7.845a3.571 3.571 0 013.434-2.595h23.284a3.571 3.571 0 013.572 3.571V33.18a3.571 3.571 0 01-3.572 3.571H4.728a3.571 3.571 0 01-3.435-4.547L8.218 7.845z" fill="#1929B9"/><path d="M24.365 10.205c-.155 1.132-.685 2.546-1.59 4.244a42.204 42.204 0 01-3.248 5.06c-1.237 1.675-2.397 3.057-3.48 4.145h6.561v-4.668c.685-.957 1.381-2.089 2.088-3.395.707-1.305 1.17-2.383 1.392-3.231h2.816v11.294h3.181v4.799h-3.18v4.603h-6.297v-4.603h-11.1v-4.864c1.193-1.698 2.375-3.754 3.546-6.17a47.182 47.182 0 002.816-7.214h6.495z" fill="#fff"/></svg>
